X: 50
M: 2/4
L: 1/8
K: D
|:\
dABc | dc/B/ A2 | Bgec | dA FD |\
dABc | dc/B/ A2 | Bgec | d2 D2 ::\
f2af | e2ge |
face | dA FD |\
f2af | e2ge | face | d2 d2 ::\
cABc | d/c/d/e/ dd |\
(c//d//e3/) df | egce |\
dfeg | Tg2 f2 |\
(c//d//e3/) df | egce |\


